X: 13186
T: First Slip, The
R: slip jig
M: 9/8
K: Gmajor
dBG GDG G2B|dBG GB/c/d gfe|dBG GDG G2B|cAG FG/A/B cBA|
dBG GDG G2B|dBG GB/c/d gfe|dBG GDG G2B|cAG FG/A/B cBA||
GBd dBd d2B|GB/c/d dBd gdB|GB/c/d dBd ded|cAG FG/A/B cBA|
GBd dBd d2B|GB/c/d dBd gdB|GB/c/d dBd ded|cAG FG/A/B c2e||

